X: 12
T: The Frost Is All Over
R: jig
M: 6/8
L: 1/8
K: Dmaj
|:A|d2f edc | dAF GFE | DFA DFA | Bcd efg |
fed edc | dAF GFE | DFA DFA | BAF d2 :|
|:e|faa afd | gfg bag | faa afd | gfg efg |
[1 faa afd | gfg bag | fga efg | fdc d2 :|
[2 fga efg | fdB AFA | Bcd efg | faf gfe || d2 ||


Tune 448	Setting 977

